X:27
T:Frederick's Hornpipe. CAM2.[28]
B:Anon MS#2, early 19thC, Northumbria, Cocks Coll.
Z:Village Music Project 2016 Steve Mansfield
M:4/4
L:1/8
Q:2/4=90
C:"Thos. McKenzie"
K:G
D2 | G3A BGdB | ABcd efga | b2ag fedc | BdgB dcAF |
G3A BGdB | ABcd efga | b2ag fedc | BAGF G2 :|
|: d2 | g3a bgbg | afed gabg | e3f agfe | edcA G2F2 |
G3A BGdB | ABcd efga | b2ag fedc | BAfF G2 :|

